X: 258
T: Count Not the Hours
B: O'Neill's 258
N: "Cheerful"
N: "Collected by F.O'Neill"
Z: 1997 by John Chambers <jc@trillian.mit.edu>
M: 6/8
L: 1/8
K:G
  G>AB (Bg>)d | (d2B) (A2B/A/) | G>AB gdB | A3 z2(B/A/) |
| G>AB (Bg>)d | .d.e.f (Hg2f/e/) | .d.g.B .d.c.A | G3 z2 ||
|| (g/a/) \
| (b2g) (ag).e | d2B B2g/a/ | (b2g) (ag).e | d3 g2(g/a/) |
| .b.a.g .a.g.f | .d.e.f (Hg2f/e/) | .d.g.B .d.c.A | G3 z2 ||


